static/img/kroki/9da2bb91835c4273fe5f60b2681e1cb3.svg

<?xml version="1.0" encoding="us-ascii" standalone="no"?><svg xmlns="http://www.w3.org/2000/svg" xmlns:xlink="http://www.w3.org/1999/xlink" contentStyleType="text/css" height="252px" preserveAspectRatio="none" style="width:501px;height:252px;" version="1.1" viewBox="0 0 501 252" width="501px" zoomAndPan="magnify"><defs/><g><!--class kubernetes_endpoint_slice--><g id="elem_kubernetes_endpoint_slice"><rect codeLine="22" fill="#3D176E" height="39.7891" id="kubernetes_endpoint_slice" rx="2.5" ry="2.5" style="stroke:#000D19;stroke-width:0.5;" width="264" x="7" y="206.58"/><ellipse cx="22" cy="226.4745" fill="#ADD1B2" rx="11" ry="11" style="stroke:#181818;stroke-width:1.0;"/><path d="M24.9688,232.1152 Q24.3906,232.412 23.75,232.5527 Q23.1094,232.7089 22.4063,232.7089 Q19.9063,232.7089 18.5781,231.0683 Q17.2656,229.412 17.2656,226.287 Q17.2656,223.162 18.5781,221.5058 Q19.9063,219.8495 22.4063,219.8495 Q23.1094,219.8495 23.75,220.0058 Q24.4063,220.162 24.9688,220.4589 L24.9688,223.1777 Q24.3438,222.5995 23.75,222.3339 Q23.1563,222.0527 22.5313,222.0527 Q21.1875,222.0527 20.5,223.1308 Q19.8125,224.1933 19.8125,226.287 Q19.8125,228.3808 20.5,229.4589 Q21.1875,230.5214 22.5313,230.5214 Q23.1563,230.5214 23.75,230.2558 Q24.3438,229.9745 24.9688,229.3964 L24.9688,232.1152 Z " fill="#000000"/><text fill="#D9B8FF" font-family="Helvetica" font-size="17" lengthAdjust="spacing" textLength="222" x="41" y="232.3598">kubernetes_endpoint_slice</text></g><!--class kubernetes_namespace--><g id="elem_kubernetes_namespace"><rect codeLine="24" fill="#3D176E" height="39.7891" id="kubernetes_namespace" rx="2.5" ry="2.5" style="stroke:#000D19;stroke-width:0.5;" width="239" x="147.5" y="7"/><ellipse cx="162.5" cy="26.8945" fill="#ADD1B2" rx="11" ry="11" style="stroke:#181818;stroke-width:1.0;"/><path d="M165.4688,32.5352 Q164.8906,32.832 164.25,32.9727 Q163.6094,33.1289 162.9063,33.1289 Q160.4063,33.1289 159.0781,31.4883 Q157.7656,29.832 157.7656,26.707 Q157.7656,23.582 159.0781,21.9258 Q160.4063,20.2695 162.9063,20.2695 Q163.6094,20.2695 164.25,20.4258 Q164.9063,20.582 165.4688,20.8789 L165.4688,23.5977 Q164.8438,23.0195 164.25,22.7539 Q163.6563,22.4727 163.0313,22.4727 Q161.6875,22.4727 161,23.5508 Q160.3125,24.6133 160.3125,26.707 Q160.3125,28.8008 161,29.8789 Q161.6875,30.9414 163.0313,30.9414 Q163.6563,30.9414 164.25,30.6758 Q164.8438,30.3945 165.4688,29.8164 L165.4688,32.5352 Z " fill="#000000"/><text fill="#D9B8FF" font-family="Helvetica" font-size="17" lengthAdjust="spacing" textLength="197" x="181.5" y="32.7798">kubernetes_namespace</text></g><!--class kubernetes_pod--><g id="elem_kubernetes_pod"><rect codeLine="26" fill="#3D176E" height="39.7891" id="kubernetes_pod" rx="2.5" ry="2.5" style="stroke:#000D19;stroke-width:0.5;" width="175" x="319.5" y="206.58"/><ellipse cx="334.5" cy="226.4745" fill="#ADD1B2" rx="11" ry="11" style="stroke:#181818;stroke-width:1.0;"/><path d="M337.4688,232.1152 Q336.8906,232.412 336.25,232.5527 Q335.6094,232.7089 334.9063,232.7089 Q332.4063,232.7089 331.0781,231.0683 Q329.7656,229.412 329.7656,226.287 Q329.7656,223.162 331.0781,221.5058 Q332.4063,219.8495 334.9063,219.8495 Q335.6094,219.8495 336.25,220.0058 Q336.9063,220.162 337.4688,220.4589 L337.4688,223.1777 Q336.8438,222.5995 336.25,222.3339 Q335.6563,222.0527 335.0313,222.0527 Q333.6875,222.0527 333,223.1308 Q332.3125,224.1933 332.3125,226.287 Q332.3125,228.3808 333,229.4589 Q333.6875,230.5214 335.0313,230.5214 Q335.6563,230.5214 336.25,230.2558 Q336.8438,229.9745 337.4688,229.3964 L337.4688,232.1152 Z " fill="#000000"/><text fill="#D9B8FF" font-family="Helvetica" font-size="17" lengthAdjust="spacing" textLength="133" x="353.5" y="232.3598">kubernetes_pod</text></g><!--class kubernetes_service--><g id="elem_kubernetes_service"><rect codeLine="28" fill="#3D176E" height="39.7891" id="kubernetes_service" rx="2.5" ry="2.5" style="stroke:#000D19;stroke-width:0.5;" width="203" x="165.5" y="106.79"/><ellipse cx="180.5" cy="126.6845" fill="#ADD1B2" rx="11" ry="11" style="stroke:#181818;stroke-width:1.0;"/><path d="M183.4688,132.3252 Q182.8906,132.622 182.25,132.7627 Q181.6094,132.9189 180.9063,132.9189 Q178.4063,132.9189 177.0781,131.2783 Q175.7656,129.622 175.7656,126.497 Q175.7656,123.372 177.0781,121.7158 Q178.4063,120.0595 180.9063,120.0595 Q181.6094,120.0595 182.25,120.2158 Q182.9063,120.372 183.4688,120.6689 L183.4688,123.3877 Q182.8438,122.8095 182.25,122.5439 Q181.6563,122.2627 181.0313,122.2627 Q179.6875,122.2627 179,123.3408 Q178.3125,124.4033 178.3125,126.497 Q178.3125,128.5908 179,129.6689 Q179.6875,130.7314 181.0313,130.7314 Q181.6563,130.7314 182.25,130.4658 Q182.8438,130.1845 183.4688,129.6064 L183.4688,132.3252 Z " fill="#000000"/><text fill="#D9B8FF" font-family="Helvetica" font-size="17" lengthAdjust="spacing" textLength="161" x="199.5" y="132.5698">kubernetes_service</text></g><!--link kubernetes_namespace to kubernetes_endpoint_slice--><g id="link_kubernetes_namespace_kubernetes_endpoint_slice"><path codeLine="30" d="M218.63,47.27 C193.11,60.16 163.87,79.75 148,106.79 C131.16,135.5 131.95,175.07 134.85,200.47 " fill="none" id="kubernetes_namespace-to-kubernetes_endpoint_slice" style="stroke:#1A83AF;stroke-width:2.0;"/><polygon fill="#1A83AF" points="135.58,205.29,138.4161,195.8583,134.951,200.3297,130.4796,196.8647,135.58,205.29" style="stroke:#1A83AF;stroke-width:2.0;"/></g><!--link kubernetes_namespace to kubernetes_pod--><g id="link_kubernetes_namespace_kubernetes_pod"><path codeLine="31" d="M313.16,47.29 C338.62,60.38 368.54,80.15 386,106.79 C404.48,134.98 408.02,174.69 408.1,200.25 " fill="none" id="kubernetes_namespace-to-kubernetes_pod" style="stroke:#1A83AF;stroke-width:2.0;"/><polygon fill="#1A83AF" points="408.06,205.12,412.1115,196.1431,408.0887,200.1201,404.1116,196.0972,408.06,205.12" style="stroke:#1A83AF;stroke-width:2.0;"/></g><!--link kubernetes_namespace to kubernetes_service--><g id="link_kubernetes_namespace_kubernetes_service"><path codeLine="32" d="M267,47.22 C267,62.49 267,83.92 267,100.53 " fill="none" id="kubernetes_namespace-to-kubernetes_service" style="stroke:#1A83AF;stroke-width:2.0;"/><polygon fill="#1A83AF" points="267,105.41,271,96.41,267,100.41,263,96.41,267,105.41" style="stroke:#1A83AF;stroke-width:2.0;"/></g><!--link kubernetes_service to kubernetes_endpoint_slice--><g id="link_kubernetes_service_kubernetes_endpoint_slice"><path codeLine="33" d="M241.71,147.01 C220.76,163.01 190.95,185.79 168.83,202.68 " fill="none" id="kubernetes_service-to-kubernetes_endpoint_slice" style="stroke:#1A83AF;stroke-width:2.0;"/><polygon fill="#1A83AF" points="165.24,206.2,174.8221,203.9232,169.2158,203.1681,169.971,197.5618,165.24,206.2" style="stroke:#1A83AF;stroke-width:2.0;"/></g><!--link kubernetes_service to kubernetes_pod--><g id="link_kubernetes_service_kubernetes_pod"><path codeLine="34" d="M294.66,147.01 C317.67,163.08 350.46,185.98 374.67,202.9 " fill="none" id="kubernetes_service-to-kubernetes_pod" style="stroke:#1A83AF;stroke-width:2.0;"/><polygon fill="#1A83AF" points="378.4,206.2,373.303,197.7726,374.2978,203.3413,368.7291,204.3361,378.4,206.2" style="stroke:#1A83AF;stroke-width:2.0;"/></g><!--SRC=[bP9DQy9048Rl-HKBEGkceKsy5A8WxKLAxQqKMREpPaco6sP7nPR-zyQgPPiF9TTzdvbvPjXC2M1GLdHW9PHhGElPNEcA8ozPWcZsCrCOPBwKN8PHCvmRJJU11I-1FK6n0r8fRn9lcKfp3TQoEoUQyZJVeDbgSMfFoBMj8z3aKBE2MviGeLfl2HmPCLd7KZR9PbC_547q02tCe00y8-FnM0IJ9d9prDMz_uYb-WGMk4TR68AMPcl4BtNLyaWuagr5BtclumiNGkaDktVUNazEg07_lIypBip-I4jUM7UC9K0mTAXWrjeA9h6GKIVyt0UdnyknV5j_L0q4TWLQL4PfMjb2fS2-lEyse-iTwx_J5rT6T0SMS7TfsjbkzEu7IHmcyu_HOx_KiDhQPbZ1sTBh41_kTwkojli1]--></g></svg>

<svg xmlns="http://www.w3.org/2000/svg" width="501" height="252" preserveAspectRatio="none" style="width:501px;height:252px"><rect width="264" height="39.789" x="7" y="206.58" fill="#3D176E" rx="2.5" ry="2.5" style="stroke:#000d19;stroke-width:.5"/><circle cx="22" cy="226.475" r="11" fill="#ADD1B2" style="stroke:#181818;stroke-width:1"/><path d="M24.969 232.115q-.578.297-1.219.438-.64.156-1.344.156-2.5 0-3.828-1.64-1.312-1.657-1.312-4.782t1.312-4.781q1.328-1.656 3.828-1.656.703 0 1.344.156.656.156 1.219.453v2.719q-.625-.578-1.219-.844-.594-.281-1.219-.281-1.343 0-2.031 1.078-.688 1.062-.688 3.156 0 2.094.688 3.172.688 1.062 2.031 1.062.625 0 1.219-.265.594-.281 1.219-.86v2.72Z"/><text x="41" y="232.36" fill="#D9B8FF" font-family="Helvetica" font-size="17" textLength="222">kubernetes_endpoint_slice</text><rect width="239" height="39.789" x="147.5" y="7" fill="#3D176E" rx="2.5" ry="2.5" style="stroke:#000d19;stroke-width:.5"/><circle cx="162.5" cy="26.895" r="11" fill="#ADD1B2" style="stroke:#181818;stroke-width:1"/><path d="M165.469 32.535q-.578.297-1.219.438-.64.156-1.344.156-2.5 0-3.828-1.64-1.312-1.657-1.312-4.782t1.312-4.781q1.328-1.656 3.828-1.656.703 0 1.344.156.656.156 1.219.453v2.719q-.625-.578-1.219-.844-.594-.281-1.219-.281-1.344 0-2.031 1.078-.688 1.062-.688 3.156 0 2.094.688 3.172.688 1.062 2.031 1.062.625 0 1.219-.265.594-.281 1.219-.86v2.72Z"/><text x="181.5" y="32.78" fill="#D9B8FF" font-family="Helvetica" font-size="17" textLength="197">kubernetes_namespace</text><rect width="175" height="39.789" x="319.5" y="206.58" fill="#3D176E" rx="2.5" ry="2.5" style="stroke:#000d19;stroke-width:.5"/><circle cx="334.5" cy="226.475" r="11" fill="#ADD1B2" style="stroke:#181818;stroke-width:1"/><path d="M337.469 232.115q-.578.297-1.219.438-.64.156-1.344.156-2.5 0-3.828-1.64-1.312-1.657-1.312-4.782t1.312-4.781q1.328-1.656 3.828-1.656.703 0 1.344.156.656.156 1.219.453v2.719q-.625-.578-1.219-.844-.594-.281-1.219-.281-1.344 0-2.031 1.078-.688 1.062-.688 3.156 0 2.094.688 3.172.688 1.062 2.031 1.062.625 0 1.219-.265.594-.281 1.219-.86v2.72Z"/><text x="353.5" y="232.36" fill="#D9B8FF" font-family="Helvetica" font-size="17" textLength="133">kubernetes_pod</text><rect width="203" height="39.789" x="165.5" y="106.79" fill="#3D176E" rx="2.5" ry="2.5" style="stroke:#000d19;stroke-width:.5"/><circle cx="180.5" cy="126.684" r="11" fill="#ADD1B2" style="stroke:#181818;stroke-width:1"/><path d="M183.469 132.325q-.578.297-1.219.438-.64.156-1.344.156-2.5 0-3.828-1.64-1.312-1.657-1.312-4.782t1.312-4.781q1.328-1.656 3.828-1.656.703 0 1.344.156.656.156 1.219.453v2.719q-.625-.579-1.219-.844-.594-.281-1.219-.281-1.344 0-2.031 1.078-.688 1.062-.688 3.156 0 2.094.688 3.172.688 1.062 2.031 1.062.625 0 1.219-.265.594-.281 1.219-.86v2.72Z"/><text x="199.5" y="132.57" fill="#D9B8FF" font-family="Helvetica" font-size="17" textLength="161">kubernetes_service</text><path fill="none" d="M218.63 47.27c-25.52 12.89-54.76 32.48-70.63 59.52-16.84 28.71-16.05 68.28-13.15 93.68" style="stroke:#1a83af;stroke-width:2"/><path fill="#1A83AF" d="m135.58 205.29 2.836-9.432-3.465 4.472-4.471-3.465 5.1 8.425z" style="stroke:#1a83af;stroke-width:2"/><path fill="none" d="M313.16 47.29c25.46 13.09 55.38 32.86 72.84 59.5 18.48 28.19 22.02 67.9 22.1 93.46" style="stroke:#1a83af;stroke-width:2"/><path fill="#1A83AF" d="m408.06 205.12 4.051-8.977-4.022 3.977-3.977-4.023 3.948 9.023z" style="stroke:#1a83af;stroke-width:2"/><path fill="none" d="M267 47.22v53.31" style="stroke:#1a83af;stroke-width:2"/><path fill="#1A83AF" d="m267 105.41 4-9-4 4-4-4 4 9z" style="stroke:#1a83af;stroke-width:2"/><path fill="none" d="M241.71 147.01c-20.95 16-50.76 38.78-72.88 55.67" style="stroke:#1a83af;stroke-width:2"/><path fill="#1A83AF" d="m165.24 206.2 9.582-2.277-5.606-.755.755-5.606-4.731 8.638z" style="stroke:#1a83af;stroke-width:2"/><path fill="none" d="M294.66 147.01c23.01 16.07 55.8 38.97 80.01 55.89" style="stroke:#1a83af;stroke-width:2"/><path fill="#1A83AF" d="m378.4 206.2-5.097-8.427.995 5.568-5.569.995 9.671 1.864z" style="stroke:#1a83af;stroke-width:2"/></svg>
